web/assets/img/produtos/icone2.svg

<?xml version="1.0" encoding="UTF-8"?>
<svg xmlns="http://www.w3.org/2000/svg" xmlns:xlink="http://www.w3.org/1999/xlink" width="375pt" height="374.999991pt" viewBox="0 0 375 374.999991" version="1.2">
<defs>
<clipPath id="clip1">
  <path d="M 131.8125 112.5 L 243.1875 112.5 L 243.1875 262.5 L 131.8125 262.5 Z M 131.8125 112.5 "/>
</clipPath>
</defs>
<g id="surface1">
<g clip-path="url(#clip1)" clip-rule="nonzero">
<path style=" stroke:none;fill-rule:nonzero;fill:rgb(97.24884%,76.078796%,24.308777%);fill-opacity:1;" d="M 146.632812 255.144531 C 146.632812 256.476562 147.71875 257.5625 149.054688 257.5625 L 153.902344 257.5625 C 155.238281 257.5625 156.328125 256.476562 156.328125 255.144531 L 156.328125 252.730469 L 146.632812 252.730469 Z M 209.65625 255.144531 C 209.65625 256.476562 210.746094 257.5625 212.082031 257.5625 L 216.929688 257.5625 C 218.265625 257.5625 219.355469 256.476562 219.355469 255.144531 L 219.355469 252.730469 L 209.65625 252.730469 Z M 222.242188 218.90625 L 195.605469 218.90625 L 190.199219 226.996094 C 191.734375 228.703125 192.6875 230.929688 192.6875 233.402344 C 192.6875 238.734375 188.34375 243.066406 182.992188 243.066406 C 177.644531 243.066406 173.296875 238.734375 173.296875 233.402344 C 173.296875 228.070312 177.644531 223.738281 182.992188 223.738281 C 184.109375 223.738281 185.160156 223.964844 186.15625 224.316406 L 189.773438 218.90625 L 143.742188 218.90625 L 137.511719 247.898438 L 228.472656 247.898438 Z M 212.566406 193.539062 L 198.835938 214.074219 L 216.4375 214.074219 Z M 202.800781 141.597656 L 195.113281 141.597656 L 195.113281 210.933594 L 211.296875 186.746094 Z M 207.234375 131.933594 L 158.75 131.933594 L 158.75 136.765625 L 207.234375 136.765625 Z M 184.515625 117.4375 L 181.46875 117.4375 L 170.152344 127.101562 L 195.832031 127.101562 Z M 190.265625 209.242188 L 180.570312 209.242188 L 180.570312 204.410156 L 190.265625 204.410156 L 190.265625 189.914062 L 180.570312 189.914062 L 180.570312 185.085938 L 190.265625 185.085938 L 190.265625 170.589844 L 180.570312 170.589844 L 180.570312 165.757812 L 190.265625 165.757812 L 190.265625 151.261719 L 180.570312 151.261719 L 180.570312 146.429688 L 190.265625 146.429688 L 190.265625 141.597656 L 175.71875 141.597656 L 175.71875 156.09375 L 185.417969 156.09375 L 185.417969 160.925781 L 175.71875 160.925781 L 175.71875 175.421875 L 185.417969 175.421875 L 185.417969 180.253906 L 175.71875 180.253906 L 175.71875 194.746094 L 185.417969 194.746094 L 185.417969 199.578125 L 175.71875 199.578125 L 175.71875 214.074219 L 190.265625 214.074219 Z M 182.992188 228.570312 C 180.324219 228.570312 178.144531 230.742188 178.144531 233.402344 C 178.144531 236.0625 180.324219 238.234375 182.992188 238.234375 C 185.664062 238.234375 187.839844 236.0625 187.839844 233.402344 C 187.839844 230.742188 185.664062 228.570312 182.992188 228.570312 Z M 149.546875 214.074219 L 170.871094 214.074219 L 170.871094 141.597656 L 163.183594 141.597656 Z M 233.898438 160.925781 C 233.898438 159.59375 232.808594 158.507812 231.472656 158.507812 C 230.140625 158.507812 229.050781 159.59375 229.050781 160.925781 C 229.050781 162.253906 230.140625 163.339844 231.472656 163.339844 C 232.808594 163.339844 233.898438 162.253906 233.898438 160.925781 Z M 131.507812 252.730469 L 139.824219 214.074219 L 144.625 214.074219 L 158.257812 141.597656 L 153.902344 141.597656 L 153.902344 127.101562 L 162.699219 127.101562 L 179.667969 112.605469 L 186.316406 112.605469 L 203.285156 127.101562 L 212.082031 127.101562 L 212.082031 141.597656 L 207.726562 141.597656 L 215.140625 180.988281 L 225.667969 165.246094 C 224.761719 164.039062 224.203125 162.546875 224.203125 160.925781 C 224.203125 156.921875 227.460938 153.675781 231.472656 153.675781 C 232.089844 153.675781 232.675781 153.769531 233.246094 153.921875 L 239.152344 145.089844 L 243.1875 147.769531 L 237.277344 156.601562 C 238.1875 157.808594 238.746094 159.300781 238.746094 160.925781 C 238.746094 164.925781 235.488281 168.171875 231.472656 168.171875 C 230.859375 168.171875 230.273438 168.078125 229.703125 167.925781 L 216.417969 187.78125 L 221.371094 214.074219 L 226.164062 214.074219 L 234.476562 252.730469 L 224.203125 252.730469 L 224.203125 255.144531 C 224.203125 259.148438 220.945312 262.394531 216.929688 262.394531 L 212.082031 262.394531 C 208.078125 262.394531 204.808594 259.148438 204.808594 255.144531 L 204.808594 252.730469 L 161.175781 252.730469 L 161.175781 255.144531 C 161.175781 259.148438 157.917969 262.394531 153.902344 262.394531 L 149.054688 262.394531 C 145.050781 262.394531 141.785156 259.148438 141.785156 255.144531 L 141.785156 252.730469 L 131.507812 252.730469 "/>
</g>
</g>
</svg>

<?xml version="1.0" encoding="UTF-8" standalone="no"?>
<svg
   xmlns:dc="http://purl.org/dc/elements/1.1/"
   xmlns:cc="http://creativecommons.org/ns#"
   xmlns:rdf="http://www.w3.org/1999/02/22-rdf-syntax-ns#"
   xmlns:svg="http://www.w3.org/2000/svg"
   xmlns="http://www.w3.org/2000/svg"
   xmlns:sodipodi="http://sodipodi.sourceforge.net/DTD/sodipodi-0.dtd"
   xmlns:inkscape="http://www.inkscape.org/namespaces/inkscape"
   width="200pt"
   height="160pt"
   viewBox="0 0 200 160"
   version="1.2"
   id="svg12"
   sodipodi:docname="icone2.svg"
   inkscape:version="0.92.5 (2060ec1f9f, 2020-04-08)">
  <metadata
     id="metadata16">
    <rdf:RDF>
      <cc:Work
         rdf:about="">
        <dc:format>image/svg+xml</dc:format>
        <dc:type
           rdf:resource="http://purl.org/dc/dcmitype/StillImage" />
        <dc:title></dc:title>
      </cc:Work>
    </rdf:RDF>
  </metadata>
  <sodipodi:namedview
     pagecolor="#ffffff"
     bordercolor="#666666"
     borderopacity="1"
     objecttolerance="10"
     gridtolerance="10"
     guidetolerance="10"
     inkscape:pageopacity="0"
     inkscape:pageshadow="2"
     inkscape:window-width="1920"
     inkscape:window-height="1021"
     id="namedview14"
     showgrid="true"
     fit-margin-top="0"
     fit-margin-left="0"
     fit-margin-right="0"
     fit-margin-bottom="0"
     showguides="true"
     inkscape:guide-bbox="true"
     inkscape:zoom="1.888"
     inkscape:cx="147.48482"
     inkscape:cy="63.675768"
     inkscape:window-x="0"
     inkscape:window-y="27"
     inkscape:window-maximized="1"
     inkscape:current-layer="svg12">
    <inkscape:grid
       type="xygrid"
       id="grid18" />
  </sodipodi:namedview>
  <defs
     id="defs5">
    <clipPath
       id="clip1">
      <path
         d="m 131.8125,112.5 h 111.375 v 150 h -111.375 z m 0,0"
         id="path2"
         inkscape:connector-curvature="0" />
    </clipPath>
  </defs>
  <g
     id="surface1"
     transform="translate(-81.515617,-107.07812)">
    <g
       clip-path="url(#clip1)"
       id="g9"
       style="clip-rule:nonzero">
      <path
         style="fill:#f8c23d;fill-opacity:1;fill-rule:nonzero;stroke:none"
         d="m 146.63281,255.14453 c 0,1.33203 1.08594,2.41797 2.42188,2.41797 h 4.84765 c 1.33594,0 2.42578,-1.08594 2.42578,-2.41797 v -2.41406 h -9.69531 z m 63.02344,0 c 0,1.33203 1.08984,2.41797 2.42578,2.41797 h 4.84766 c 1.33593,0 2.42578,-1.08594 2.42578,-2.41797 v -2.41406 h -9.69922 z m 12.58594,-36.23828 h -26.63672 l -5.40625,8.08984 c 1.53515,1.70703 2.48828,3.9336 2.48828,6.40625 0,5.33203 -4.34375,9.66407 -9.69531,9.66407 -5.34766,0 -9.69532,-4.33204 -9.69532,-9.66407 0,-5.33203 4.34766,-9.66406 9.69532,-9.66406 1.11718,0 2.16797,0.22656 3.16406,0.57813 l 3.61719,-5.41016 h -46.03125 l -6.23047,28.99219 h 90.96094 z m -9.67578,-25.36719 -13.73047,20.53516 h 17.60156 z m -9.76563,-51.9414 h -7.6875 v 69.33593 l 16.18359,-24.1875 z m 4.43359,-9.66407 H 158.75 v 4.83203 h 48.48437 z M 184.51562,117.4375 h -3.04687 l -11.31641,9.66406 h 25.67969 z m 5.75,91.80469 h -9.69531 v -4.83203 h 9.69531 v -14.4961 h -9.69531 v -4.82812 h 9.69531 v -14.4961 h -9.69531 v -4.83203 h 9.69531 v -14.49609 h -9.69531 v -4.83203 h 9.69531 v -4.83203 h -14.54687 v 14.49609 h 9.69922 v 4.83203 h -9.69922 v 14.49609 h 9.69922 v 4.83204 h -9.69922 v 14.49218 h 9.69922 v 4.83203 h -9.69922 v 14.4961 h 14.54687 z m -7.27343,19.32812 c -2.66797,0 -4.84766,2.17188 -4.84766,4.83203 0,2.66016 2.17969,4.83203 4.84766,4.83203 2.67187,0 4.84765,-2.17187 4.84765,-4.83203 0,-2.66015 -2.17578,-4.83203 -4.84765,-4.83203 z m -33.44532,-14.49609 h 21.32422 v -72.47656 h -7.6875 z m 84.35157,-53.14844 c 0,-1.33203 -1.08985,-2.41797 -2.42578,-2.41797 -1.33204,0 -2.42188,1.08594 -2.42188,2.41797 0,1.32813 1.08984,2.41406 2.42188,2.41406 1.33593,0 2.42578,-1.08593 2.42578,-2.41406 z m -102.39063,91.80469 8.31641,-38.65625 h 4.80078 l 13.63281,-72.47656 h -4.35547 v -14.4961 h 8.79688 l 16.96875,-14.49609 h 6.64844 l 16.96875,14.49609 h 8.79687 v 14.4961 h -4.35547 l 7.41406,39.39062 10.52735,-15.74219 c -0.90625,-1.20703 -1.46485,-2.69922 -1.46485,-4.32031 0,-4.00391 3.25782,-7.25 7.26954,-7.25 0.61718,0 1.20312,0.0937 1.77343,0.24609 l 5.90625,-8.83203 4.03516,2.67969 -5.91016,8.83203 c 0.91016,1.20703 1.46875,2.69922 1.46875,4.32422 0,4 -3.25781,7.24609 -7.27343,7.24609 -0.61329,0 -1.19922,-0.0937 -1.76954,-0.24609 l -13.28515,19.85547 4.95312,26.29297 h 4.79297 l 8.3125,38.65625 h -10.27344 v 2.41406 c 0,4.00391 -3.25781,7.25 -7.27343,7.25 h -4.84766 c -4.00391,0 -7.27344,-3.24609 -7.27344,-7.25 v -2.41406 h -43.63281 v 2.41406 c 0,4.00391 -3.25781,7.25 -7.27344,7.25 h -4.84765 c -4.00391,0 -7.26953,-3.24609 -7.26953,-7.25 v -2.41406 h -10.27735"
         id="path7"
         inkscape:connector-curvature="0" />
    </g>
  </g>
</svg>
